!!!OTL: Maoweiyuan pailai xueshengjun
!!!ARE: Asia, China,ÿHubei Macheng
!! I, 403
!!!SCT: C1932
!!!YEM: Copyright 1995, estate of Helmut Schaffrath.
**kern
*ICvox
*Ivox
*M2/4
*k[f#c#g#]
*A:
{8.a
16b
8a
8b
=1
16a
16cc#
4b
16cc#
16b
=2
4a
4r}
=3
{8.a
16b
8a
8b
=4
16ee
16cc#
4b
16cc#
16b
=5
4a
4r}
=6
{8a
8a
8cc#
16b
16a
=7
16f#
16a
[8e
16e]
16a
16f#
16e
=8
2c#}
=9
{8f#
4f#
8b
=10
4f#
4r
=11
8a
8a
8cc#
16b
16a
=12
16f#
16a
[8e
16e]
16a
16f#
16e
=13
2c#}
==
!!!AGN: Xiaodiao, Qong rendiao
!!!ONB: ESAC (Essen Associative Code) Database: SENGANSU
!!!AMT: simple duple
!!!AIN: vox
!!!EED: Helmut Schaffrath
!!!EEV: 1.0
*-
